packages/kaspersky-hexa-ui-icons/src/iconsSVGs/64x42/FlagWw.svg

<svg xmlns="http://www.w3.org/2000/svg" width="64" height="42" fill="none" viewBox="0 0 64 42"><g clip-path="url(#a)"><rect width="64" height="42" fill="#fff" rx="5"/><path fill="#19bfbf" d="M0 0h64v42H0z"/><path fill="#fff" fill-rule="evenodd" d="M47.3999 21.0001c0 8.5052-6.8949 15.4-15.4 15.4s-15.4-6.8948-15.4-15.4 6.8948-15.4 15.4-15.4 15.4 6.8948 15.4 15.4m-2.8769 1.4002c-.5199 4.7021-3.6272 8.6244-7.8667 10.3114 1.3651-2.7804 2.1626-6.4026 2.3162-10.3114zm-8.3533 0c-.2045 4.7228-1.4375 8.8968-3.3601 11.1741a12.8 12.8 0 0 1-1.6195 0c-1.9226-2.2773-3.1556-6.4513-3.3601-11.1741zm-11.1425 0c.1536 3.9087.9511 7.5308 2.3161 10.3112-4.2393-1.687-7.3465-5.6092-7.8664-10.3112zm2.8028-2.8h8.3397c-.2044-4.7232-1.4377-8.8976-3.3606-11.1747a12.8 12.8 0 0 0-1.6186 0c-1.9228 2.2771-3.1561 6.4515-3.3605 11.1747m-.4864-10.312c-1.3652 2.7805-2.1628 6.403-2.3164 10.312h-5.5504c.5197-4.7024 3.6272-8.6249 7.8668-10.312m17.1795 10.312h-5.5506c-.1536-3.909-.9512-7.5316-2.3165-10.3121 4.2398 1.687 7.3474 5.6096 7.8671 10.3121" clip-rule="evenodd"/></g><defs><clipPath id="a"><rect width="64" height="42" fill="#fff" rx="5"/></clipPath></defs></svg>

<svg width="64" height="42" viewBox="0 0 64 42" fill="none" xmlns="http://www.w3.org/2000/svg">
<g clip-path="url(#clip0_37941_2385)">
<rect width="64" height="42" rx="5" fill="white"/>
<rect width="64" height="42" fill="#19BFBF"/>
<path fill-rule="evenodd" clip-rule="evenodd" d="M47.3999 21.0001C47.3999 29.5053 40.505 36.4001 31.9999 36.4001C23.4947 36.4001 16.5999 29.5053 16.5999 21.0001C16.5999 12.4949 23.4947 5.6001 31.9999 5.6001C40.505 5.6001 47.3999 12.4949 47.3999 21.0001ZM44.523 22.4003C44.0031 27.1024 40.8958 31.0247 36.6563 32.7117C38.0214 29.9313 38.8189 26.3091 38.9725 22.4003H44.523ZM36.1697 22.4003C35.9652 27.1231 34.7322 31.2971 32.8096 33.5744C32.5419 33.5914 32.272 33.6 32 33.6C31.7279 33.6 31.4578 33.5914 31.1901 33.5744C29.2675 31.2971 28.0345 27.1231 27.83 22.4003H36.1697ZM25.0272 22.4003C25.1808 26.309 25.9783 29.9311 27.3433 32.7115C23.104 31.0245 19.9968 27.1023 19.4769 22.4003H25.0272ZM27.83 19.6003H36.1697C35.9653 14.8771 34.732 10.7027 32.8091 8.42556C32.5416 8.40861 32.2718 8.4 32 8.4C31.7281 8.4 31.4582 8.40861 31.1905 8.42558C29.2677 10.7027 28.0344 14.8771 27.83 19.6003ZM27.3436 9.28833C25.9784 12.0688 25.1808 15.6913 25.0272 19.6003H19.4768C19.9965 14.8979 23.104 10.9754 27.3436 9.28833ZM44.5231 19.6003H38.9725C38.8189 15.6913 38.0213 12.0687 36.656 9.2882C40.8958 10.9752 44.0034 14.8978 44.5231 19.6003Z" fill="white"/>
</g>
<defs>
<clipPath id="clip0_37941_2385">
<rect width="64" height="42" rx="5" fill="white"/>
</clipPath>
</defs>
</svg>
